X: 140051
T: LARRY GROGAN
Q: "Irish Jig."
R: Jig.
%R: jig
B: James Kerr "Merry Melodies" v.1 p.40 s.0 #51
Z: 2016 John Chambers <jc:trillian.mit.edu>
M: 6/8
L: 1/8
K: G
vdc |\
BGB BGB | AFA ABc | BdB cAF | GAG Gdc |\
BGB BGB | ABA ABc | BdB cAF | GAG G :|
|: de |\
=fgf edc | Bcd ud2ue | =fgf e^fg | ABA Ade |\
=fgf edc | Bcd ud2ud | BdB cAF | GAG G :|

%%sep 1 1 500
%%sep 1 1 500

